X:1
T:French Suite IV Courante
T:BWV 815
T:J. S. Bach
%%score { 1 | ( 2 3 ) }
L:1/8
Q:1/4=144
M:3/4
K:Eb
V:1 treble nm="Harp"
V:2 bass 
V:3 bass 
V:1
"^Vivace" B, | B,2- (3B,CD (3EFG | (3GEF d2- (3def | (3edc (3BAG (3FGA | (3AFG (3EGB (3egf | %5
 g2- (3gag (3fed | (3fcd (3efg (3BG=A | f2- (3fgf (3edc | (3dBc (3def (3AFG | (3GBA (3Bcd (3cAB | %10
 (3ecd (3efg (3ede | (3aef (3abc' (3ecd | (3d=AB (3BGA (12:8:5(1:1:4B/A/B/A/B | B2- (3BDE (3FGA | %14
 (3GDE (3CB=A (3BFG | (3Edc (3def (3FB=A | (3BFD B,2- B, B, | B,2- (3B,CD (3EFG | (3GEF d2- (3def | %19
 (3edc (3BAG (3FGA | (3AFG (3EGB (3egf | g2- (3gag (3fed | (3fcd (3efg (3BG=A | f2- (3fgf (3edc | %24
 (3dBc (3def (3AFG | (3GBA (3Bcd (3cAB | (3ecd (3efg (3ede | (3aef (3abc' (3ecd | %28
 (3d=AB (3BGA (12:8:5(1:1:4B/A/B/A/B | B2- (3BDE (3FGA | (3GDE (3CB=A (3BFG | (3Edc (3def (3FB=A | %32
 (3BFD B,2- B, d | d2- (3dfe (3dcB | (3afg (6:4:6c/=B/c/B/c/B/ (6:4:4(1:1:2c/B/cd | %35
 (3cBA (3GFE (3DFG | (3FDE (3CEG (3ced | e2- (3efe (3_dcB | (3cAB (3cGA (3=EFC | %39
 (3_D=EG (3BAG (3_dcB | (3AFG (3ABc (3_dec | (3_dfc (3fga (3gef | (3bgf (3=efg (3_dBc | %43
 (3c=EF (3_dcB (3ABA | F2- (3FAG (3ABc | (3DEF (3B,DF (3AGF | (3GAB (3EGB (3_dcB | %47
 (3cf=e (3fga (3cd_e | (3ecd (3agf (3c'ba | (3gde (3Bc_d (6:4:4(1:1:2G/A/B_D | %50
 (3C[I:staff +1]G,A, (3F,[I:staff -1]ED (3E[I:staff +1]G,A, | (3A,[I:staff -1]GF (3GAB (3B,ED | %52
 (3E[I:staff +1]B,G, E,2- E,[I:staff -1] d | d2- (3dfe (3dcB | %54
 (3afg (6:4:6c/=B/c/B/c/B/ (6:4:4(1:1:2c/B/cd | (3cBA (3GFE (3DFG | (3FDE (3CEG (3ced | %57
 e2- (3efe (3_dcB | (3cAB (3cGA (3=EFC | (3_D=EG (3BAG (3_dcB | (3AFG (3ABc (3_dec | %61
 (3_dfc (3fga (3gef | (3bgf (3=efg (3_dBc | (3c=EF (3_dcB (3ABA | F2- (3FAG (3ABc | %65
 (3DEF (3B,DF (3AGF | (3GAB (3EGB (3_dcB | (3cf=e (3fga (3cd_e | (3ecd (3agf (3c'ba | %69
 (3gde (3Bc_d (6:4:4(1:1:2G/A/B_D | (3C[I:staff +1]G,A, (3F,[I:staff -1]ED (3E[I:staff +1]G,A, | %71
 (3A,[I:staff -1]GF (3GAB (3B,ED | (3E[I:staff +1]B,G, E,2- E,[I:staff -1] z |] %73
V:2
 z | E,6- | (3:2:2E,2 E, (3:2:2F,2 E, (3:2:2F,2 A, | (3:2:2G,2 B, (3:2:2E2 A, (3:2:2B,2 B,, | %4
 (3:2:2E,2 B,, (3:2:2G,,2 E,, (3:2:2G,,2 B,, | (3E,D,C, (3:2:2=B,,2 D, (3:2:2G,,2 B,, | %6
 (3:2:2C,2 G,, (3:2:2C,,2 C, (3:2:2D,2 E, | (3D,C,B,, (3:2:2=A,,2 C, (3:2:2F,,2 A,, | %8
 B,,2- (3:2:2B,,2 D, (3:2:2F,2 B, | E,2- (3:2:2E,2 F, (3:2:2E,2 D, | %10
 C,2- (3:2:2C,2 B,, (3:2:2=A,,2 G,, | (3:2:2F,,2 C, (3:2:2F,2 G, (3:2:2A,2 F, | %12
 (3:2:2B,2 G, (3:2:2E,2 C, (3:2:2F,2 F,, | (3B,,D,F, (3:2:2B,2 C, (3:2:2D,2 B,, | %14
 (3:2:2E,2 C, (3:2:2F,2 D, (3:2:2G,2 E, | (3:2:2A,2 F, (3:2:2B,2 E, (3:2:2F,2 F,, | %16
 B,,2 (3z F,D, B,, z | E,6- | (3:2:2E,2 E, (3:2:2F,2 E, (3:2:2F,2 A, | %19
 (3:2:2G,2 B, (3:2:2E2 A, (3:2:2B,2 B,, | (3:2:2E,2 B,, (3:2:2G,,2 E,, (3:2:2G,,2 B,, | %21
 (3E,D,C, (3:2:2=B,,2 D, (3:2:2G,,2 B,, | (3:2:2C,2 G,, (3:2:2C,,2 C, (3:2:2D,2 E, | %23
 (3D,C,B,, (3:2:2=A,,2 C, (3:2:2F,,2 A,, | B,,2- (3:2:2B,,2 D, (3:2:2F,2 B, | %25
 E,2- (3:2:2E,2 F, (3:2:2E,2 D, | C,2- (3:2:2C,2 B,, (3:2:2=A,,2 G,, | %27
 (3:2:2F,,2 C, (3:2:2F,2 G, (3:2:2A,2 F, | (3:2:2B,2 G, (3:2:2E,2 C, (3:2:2F,2 F,, | %29
 (3B,,D,F, (3:2:2B,2 C, (3:2:2D,2 B,, | (3:2:2E,2 C, (3:2:2F,2 D, (3:2:2G,2 E, | %31
 (3:2:2A,2 F, (3:2:2B,2 E, (3:2:2F,2 F,, | B,,2 (3z F,D, B,, z | %33
 (3B,,D,F, (3B,[I:staff -1]DF (3BAG | F2- (3FGA (3:2:2G2 F | %35
 (3:2:2F2[I:staff +1] C (3:2:2A,2 F, (3:2:2G,2 G,, | (3:2:2C,2 G,, (3:2:2E,,2 C,, (3:2:2E,,2 G,, | %37
 (3C,B,,G,, (3:2:2G,,2 B,, (3:2:2E,,2 G,, | A,,2- (3A,,B,,C, (3:2:2B,,2 A,, | %39
 (3:2:2G,,2 F,, (3=E,,F,,G,, (3C,,D,,E,, | F,,2- (3:2:2F,,2 F, (3:2:2=A,,2 F, | %41
 (3:2:2B,,2 C, (3:2:2_D,2 C, (3:2:2B,,2 A,, | (3:2:2G,,2 A, (3:2:2G,2 F, (3:2:2=E,2 C, | %43
 (3:2:2A,2 F, (3:2:2B,2 _D (3:2:2C2 C, | (3F,C,A,, (3:2:2F,,2 C, (3F,G,A, | %45
 B,2- (3B,F,D, (3B,,C,D, | E,2- (3E,B,,G,, (3E,,F,,G,, | A,,2- (3A,,G,,F,, (3A,,G,,F,, | %48
 (3:2:2B,,2 C (3:2:2B,2 A, (3:2:2G,2 F, | E,2- (3E,_D,C, (3B,,A,,G,, | %50
 (3:2:2A,,2 F,, (3:2:2B,,2 G,, (3:2:2C,2 A,, | (3:2:2A,,2 F,, (3:2:2B,,2 G,, (3:2:2C,2 A,, | %52
 E,2- (3E,B,,G,, E,, z | (3B,,D,F, (3B,[I:staff -1]DF (3BAG | F2- (3FGA (3:2:2G2 F | %55
 (3:2:2F2[I:staff +1] C (3:2:2A,2 F, (3:2:2G,2 G,, | (3:2:2C,2 G,, (3:2:2E,,2 C,, (3:2:2E,,2 G,, | %57
 (3C,B,,G,, (3:2:2G,,2 B,, (3:2:2E,,2 G,, | A,,2- (3A,,B,,C, (3:2:2B,,2 A,, | %59
 (3:2:2G,,2 F,, (3=E,,F,,G,, (3C,,D,,E,, | F,,2- (3:2:2F,,2 F, (3:2:2=A,,2 F, | %61
 (3:2:2B,,2 C, (3:2:2_D,2 C, (3:2:2B,,2 A,, | (3:2:2G,,2 A, (3:2:2G,2 F, (3:2:2=E,2 C, | %63
 (3:2:2A,2 F, (3:2:2B,2 _D (3:2:2C2 C, | (3F,C,A,, (3:2:2F,,2 C, (3F,G,A, | %65
 B,2- (3B,F,D, (3B,,C,D, | E,2- (3E,B,,G,, (3E,,F,,G,, | A,,2- (3A,,G,,F,, (3A,,G,,F,, | %68
 (3:2:2B,,2 C (3:2:2B,2 A, (3:2:2G,2 F, | E,2- (3E,_D,C, (3B,,A,,G,, | %70
 (3:2:2A,,2 F,, (3:2:2B,,2 G,, (3:2:2C,2 A,, | (3:2:2A,,2 F,, (3:2:2B,,2 G,, (3:2:2C,2 A,, | %72
 E,2- (3E,B,,G,, E,, z |] %73
V:3
 x |[I:staff -1] (3z z[I:staff +1] F, (3:2:2G,2 F, (3:2:2G,2 B, | A,2[I:staff -1] z2 z2 | x6 | x6 | %5
 x6 | x6 | x6 | x6 | x6 | x6 | x6 | x6 | x6 | x6 | x6 | x6 | %17
 (3z z[I:staff +1] F, (3:2:2G,2 F, (3:2:2G,2 B, | A,2[I:staff -1] z2 z2 | x6 | x6 | x6 | x6 | x6 | %24
 x6 | x6 | x6 | x6 | x6 | x6 | x6 | x6 | x6 | x6 | x6 | x6 | x6 | x6 | x6 | x6 | x6 | x6 | x6 | %43
 x6 | x6 | x6 | x6 | x6 | x6 | x6 | x6 | x6 | x6 | x6 | x6 | x6 | x6 | x6 | x6 | x6 | x6 | x6 | %62
 x6 | x6 | x6 | x6 | x6 | x6 | x6 | x6 | x6 | x6 | x6 |] %73

